X:1
T:Win the World for Christ
T:Win the World for Christ
T:Joseph Lincoln Hall
T:Eliza Edmunds Stites Hewitt, 1922
T:Public Domain Courtesy of the Cyber Hymnal™
T:Public Domain Courtesy of the Cyber Hymnal™
C:Joseph Lincoln Hall
Z:Public Domain
Z:Courtesy of the Cyber Hymnal™
%%score ( 1 2 ) ( 3 4 )
L:1/8
Q:1/4=105
M:4/4
K:C
V:1 treble 
V:2 treble 
V:3 bass 
V:4 bass 
V:1
 [CE]>[DF] | [EG]2 [EG]2 [EG]2 [Ec]2 | [Ge]2 [Ec]4 c>B | (z2 F2) c2 x2 | z2 [CE]>[DF] x6 | %5
w: 1.~Hear our|watch- word loud- ly|ring- ing, Win the|* world|* for|
w: 2.~Send the|word to ev- ery|na- tion, Win the|* world|* for|
w: 3.~Tell the|bless- èd Gos- pel|sto- ry, Win the|* world|* for|
w: ~ ~|~ ~ ~ ~|~ ~ ~ ~|* ~|* ~|
 [EG]2 [EG]2 [EG]2 [Ec]2 | [Ee]2 [Ec]4 B>A | (z2 [DF]2) x6 | [DG]6 [FG]>[FA] | %9
w: Christ; Pre- cious souls|to Je- sus bring-||ing, Win the|
w: Christ; Spread the know-|ledge of sal- va-||tion, Win the|
w: Christ; Till He comes|a- gain in glo-||ry, Win the|
w: ~ ~ ~ ~|~ ~ ~ ~||~ ~ ~|
 [FB]2 [FB]2 [FB]2 [FG]2 | [EA]2 [EG]4 [FG]>[FA] | [FB]2 [FB]2 [FB]2 [FG]2 |S [Ec]6 G>G | %13
w: world for Christ; We|must all take hold|to- ge- ther; Ev-|ery one must|
w: world for Christ; But|we’ll not for- get|our neigh- bors, Those|who live be-|
w: world for Christ; Toil-|ing on with faith|and cour- age, Till|the sheaves are|
w: ~ ~ ~ ~|~ ~ ~ ~|~ ~ ~ ~|~ ~ ~|
 [Ge]2 [Ge]2 [^Gd]2 [Gd]>[Gd] | [Ac]2 [Ac]2 [Ac]2 B>A | z2 [Fd]2 x6 | [Ec]6!fine! || %17
w: do his share; Seek them|one by one, till the|work|is|
w: side our door, Speak a|word of cheer to a|bro-|ther|
w: ga- thered in; In our|spe- cial place show- ing|forth|His|
w: ~ ~ ~ D.S.~And the|work will grow, reach- ing|all|be-|
"^Refrain" E>F | (z2 c2) x6 | (z2 G2) x6 | (z2 G2) x6 | (z2 [Ec]>)[GB] x6 | %22
w: done; La-||||* bor|
w: near, Serv-||||* ing|
w: grace, Till||||* the|
w: low, Win||||* the|
 [GB]2 [FA]2 [FA]2 [Ac]>[FA] | [FA]2 [EG]2 [EG]2 [Ec]>[Ec] | [^FA]2 [FA]2 [FB]2 [Fc]2 | [Fd]6 E>F | %26
w: on (la- bor on) with|prayer. * * * *|||
w: more (serv- ing more) and|more. Win the world for|Christ; Win one, win|one! And the|
w: world (till the world) we|win. * * * *|||
w: world (win the world) for|Christ. * * * *|||
 (z2 c2) x6 | (z2 G2) x6 | (z2 G2) x6 | z2 x8!D.S.! |] %30
w: ||||
w: ||||
w: ||||
w: ||||
V:2
 x2 | x8 | x8 | A4 F>F x2 | (G6 E2 E2) | x8 | x8 | (d6 G>G ^F2) | x8 | x8 | x8 | x8 | x6 G>G | x8 | %14
 x8 | (B6 E>)E F2 | x6 || x2 | (G6 E>E E2) | (B6 F2 F2) | d6 (G2 G2) | e6 (G2 G2) | x8 | x8 | x8 | %25
 x8 | (G6 E>E E2) | (B6 F2 F2) | (d6 G2 G2) | e6 G2 G2 |] %30
V:3
 [C,G,]>[C,G,] | [C,C]2 [C,C]2 [C,C]2 [C,G,]2 | [C,C]2 [C,C]4 z2 | z2 [F,C]>[F,C] [F,C]2 z2 | %4
w: ~ ~|~ ~ ~ ~|~ ~|Win the world|
 z2 [C,C]2 [C,C]2 [C,G,]>[C,G,] x2 | [C,C]2 [C,C]2 [C,C]2 [C,G,]2 | [A,C]2 [A,C]4 z2 | %7
w: for Christ ~ ~|~ ~ ~ ~|~ ~|
 z2 [D,B,]>[D,B,] [D,A,]2 [D,C]2 x2 | [G,B,]2 .[G,B,]2 .[G,B,]2 [G,B,]>[G,C] | %9
w: Win the world ~|~ for Christ ~ ~|
 [G,D]2 [G,D]2 [G,D]2 [G,B,]2 | [C,C]2 [C,C]4 [G,B,]>[G,C] | [G,D]2 [G,D]2 [G,D]2 [G,B,]2 | %12
w: ~ ~ ~ ~|~ ~ ~ ~|~ ~ ~ ~|
 [C,C]6 G,>G, | [C,C]2 [C,C]2 [E,B,]2 [E,E]>[E,E] | [A,E]2 [A,E]2 [F,F]2 z2 | %15
w: ~ ~ ~|~ ~ ~ ~ ~|~ ~ ~|
 z2 [G,C]>[G,C] [G,B,]2 [G,B,]2 x2 | [C,C]6 || z2 | z2 [C,C]>[C,C] [C,C]2 z2 x2 | %19
w: ~ ~ ~ ~|~||Win the world|
 z2 [G,D]2 [G,D]2 z2 x2 | z2 [G,B,]2 [G,B,]2 z2 x2 | z2 [C,C]2 [C,C]2 [C,C]>[C,C] x2 | %22
w: for Christ;|Win one,|win one! ~ ~|
 [F,C]2 [F,C]2 [F,C]2 [F,C]>[F,C] | [C,C]2 [C,C]2 [C,C]2 [C,C]>[C,C] | %24
w: ~ ~ ~ ~ ~|~ ~ ~ ~ ~|
 [D,C]2 [D,C]2 [D,B,]2 [D,A,]2 | [G,B,]6 z2 | z2 [C,C]>[C,C] [C,C]2 z2 x2 | %27
w: ~ ~ ~ ~|~|Win the world|
 z2 [G,D]2 [G,D]2 z2 x2 | z2 [G,B,]2 [G,B,]2 z2 x2 | z2 [C,C]2 [C,C]2 x4 |] %30
w: for Christ;|Win one,|win one!|
V:4
 x2 | x8 | x8 | x8 | x10 | x8 | x8 | x10 | x8 | x8 | x8 | x8 | x6 G,>G, | x8 | x8 | x10 | x6 || %17
 x2 | x10 | x10 | x10 | x10 | x8 | x8 | x8 | x8 | x10 | x10 | x10 | x10 |] %30

